SF_Symbols/shield.slash.fill.svg

<?xml version="1.0" encoding="UTF-8"?>
<svg xmlns="http://www.w3.org/2000/svg" xmlns:xlink="http://www.w3.org/1999/xlink" width="24" height="24" viewBox="0 0 24 24" version="1.1">
<g id="surface1">
<path style=" stroke:none;fill-rule:nonzero;fill:rgb(100%,100%,100%);fill-opacity:1;" d="M 3.683594 6.453125 L 3.683594 13.84375 C 3.683594 14.835938 3.828125 15.699219 4.113281 16.433594 C 4.40625 17.160156 4.875 17.84375 5.515625 18.472656 C 6.160156 19.097656 7.015625 19.746094 8.074219 20.414062 C 9.140625 21.085938 10.441406 21.855469 11.976562 22.730469 C 12.117188 22.804688 12.25 22.855469 12.375 22.886719 C 12.507812 22.921875 12.617188 22.941406 12.707031 22.941406 C 12.792969 22.941406 12.902344 22.921875 13.027344 22.886719 C 13.15625 22.855469 13.292969 22.804688 13.433594 22.730469 C 14.273438 22.289062 15.03125 21.875 15.71875 21.484375 C 16.40625 21.09375 17.03125 20.722656 17.582031 20.371094 Z M 20.800781 17.4375 C 21.132812 16.929688 21.367188 16.386719 21.507812 15.804688 C 21.65625 15.21875 21.726562 14.5625 21.726562 13.84375 L 21.726562 5.527344 C 21.726562 4.960938 21.605469 4.550781 21.363281 4.300781 C 21.128906 4.050781 20.78125 3.832031 20.316406 3.640625 C 20.058594 3.53125 19.707031 3.390625 19.257812 3.21875 C 18.808594 3.050781 18.3125 2.867188 17.769531 2.667969 C 17.230469 2.46875 16.691406 2.273438 16.148438 2.074219 C 15.609375 1.875 15.117188 1.699219 14.667969 1.542969 C 14.226562 1.382812 13.878906 1.257812 13.621094 1.167969 C 13.472656 1.125 13.324219 1.089844 13.167969 1.058594 C 13.015625 1.03125 12.859375 1.015625 12.707031 1.015625 C 12.550781 1.015625 12.398438 1.03125 12.242188 1.058594 C 12.09375 1.089844 11.949219 1.125 11.800781 1.167969 C 11.464844 1.285156 10.992188 1.453125 10.390625 1.664062 C 9.785156 1.878906 9.136719 2.113281 8.4375 2.371094 C 7.746094 2.628906 7.09375 2.871094 6.472656 3.097656 Z M 21.847656 22.71875 C 22.019531 22.890625 22.21875 22.972656 22.457031 22.972656 C 22.691406 22.972656 22.890625 22.890625 23.050781 22.71875 C 23.21875 22.558594 23.304688 22.359375 23.304688 22.125 C 23.304688 21.890625 23.21875 21.6875 23.050781 21.519531 L 2.460938 0.9375 C 2.289062 0.769531 2.089844 0.683594 1.851562 0.683594 C 1.617188 0.683594 1.414062 0.769531 1.246094 0.9375 C 1.085938 1.09375 1.003906 1.289062 1.003906 1.53125 C 1.003906 1.777344 1.085938 1.976562 1.246094 2.140625 Z M 21.847656 22.71875 "/>
</g>
</svg>

<svg xmlns="http://www.w3.org/2000/svg" width="24" height="24"><path style="stroke:none;fill-rule:nonzero;fill:#fff;fill-opacity:1" d="M3.684 6.453v7.39c0 .993.144 1.856.43 2.59.292.727.761 1.41 1.402 2.04.644.625 1.5 1.273 2.558 1.941 1.067.672 2.367 1.441 3.903 2.316.14.075.273.125.398.157.133.035.242.054.332.054.086 0 .195-.02.32-.054.13-.032.266-.082.407-.157.84-.44 1.597-.855 2.285-1.246.687-.39 1.312-.761 1.863-1.113ZM20.8 17.438c.332-.508.566-1.051.707-1.633.152-.64.226-1.301.219-1.961V5.527c0-.566-.122-.976-.364-1.226-.234-.25-.582-.469-1.047-.66-.257-.11-.609-.25-1.058-.422-.45-.168-.945-.352-1.488-.551-.54-.2-1.079-.395-1.622-.594-.539-.199-1.03-.375-1.48-.531-.441-.16-.79-.285-1.047-.375a6.36 6.36 0 0 0-.453-.11 2.629 2.629 0 0 0-.461-.042c-.156 0-.309.015-.465.043a5.6 5.6 0 0 0-.441.109c-.336.117-.809.285-1.41.496-.606.215-1.254.45-1.954.707-.69.258-1.343.5-1.964.727Zm1.047 5.28a.826.826 0 0 0 .609.255.783.783 0 0 0 .594-.254.791.791 0 0 0 .254-.594.845.845 0 0 0-.254-.605L2.46.938a.838.838 0 0 0-.61-.254c-.23 0-.449.09-.605.253a.793.793 0 0 0-.242.594c0 .246.082.446.242.61Zm0 0"/></svg>
